X:1
T:I'll Fly Away
C:Albert E. Brumley
M:4/4
L:1/8
Q: 75
K:G
|: B2 G2 D2 G2 | BABc B4 | G3 EG D3 |
B2 G2 D2 G2 | BABc B4 | B3 AA G3 :|
|: d3 Bc d3 | d2 B2 A2 G2 | G3 EG D3 |
B2 G2 D2 GG | BABc B4 | B3 AA G3 :|
